X: 101
T:Stoney Steps Hornpipe. WM.101
M:4/4
L:1/8
C:*
S:WM.Mittell,1799
S:Johnny Adams <j.adams:salford.ac.uk> tradtunes 2002-12-24
R:Hornpipe
O:England
A:Kent
N:
D:
H:
Z:vmp.Chris Partington
W:Stoney Steps Hornpipe for the violin
K:CDor
BFdB fdbg|ecAc BAGF|GEDE CEGc|efgBB2-A2|BFdB fdbg|!ecAc BAGF|GEDE
CDB,2|
ecBAB4:|
|:DB,FD BFdB|egec BAGF|!GBeG AfBg|agfef4|gede fdBF|(3GAB (3cde
BAGF|GEDE
 CD B,2|ecBAB4:|]
